img/boat_icon-icons.com_59913.svg

<svg width="800" height="800" fill="none" xmlns="http://www.w3.org/2000/svg"><path d="M764.868 562.761c-.187-8.698-7.288-15.648-15.979-15.648l-694.798-.037a15.985 15.985 0 0 0-13.896 8.084 15.996 15.996 0 0 0 .152 16.076C45.245 579.473 161.748 773 287.333 773h410.972c.66.035 1.785.069 3.266.069 24.365 0 52.905-10.392 59.917-39.565 6.253-25.963 3.693-156.004 3.38-170.743Zm-34.464 163.266c-3.273 13.605-21.251 15.068-28.834 15.068-.929 0-1.554-.027-1.642-.027a12.589 12.589 0 0 0-1.16-.045H287.333c-83.613 0-169.345-111.591-203.787-161.971l649.642.036c.884 54.573.83 131.915-2.784 146.939ZM50.347 524.855c2.333 0 4.693-.517 6.9-1.57 1.295-.625 130.707-62.049 229.241-62.049 109.583 0 220.992 60.435 222.103 61.04a15.972 15.972 0 0 0 15.84-.249 15.987 15.987 0 0 0 7.847-13.757V42.92c0-8.833-7.159-15.988-15.986-15.988-205.951 0-468.741 454.637-479.826 473.986a15.978 15.978 0 0 0 2.164 18.825 15.967 15.967 0 0 0 11.717 5.112ZM500.303 59.96v422.499c-40.325-18.779-126.182-53.199-213.814-53.199-68.527 0-147.844 26.194-196.783 45.394C157.86 365.23 349.25 79.471 500.303 59.96ZM578.55 322.485c0 134.903-23.075 177.478-23.262 177.817a15.992 15.992 0 0 0 1.998 18.896 15.993 15.993 0 0 0 18.641 3.648c.549-.26 55.239-25.998 95.533-25.998 33.715 0 66.903 24.393 67.455 24.801a15.982 15.982 0 0 0 18.665.384 16.008 16.008 0 0 0 6.299-17.582c-24.892-86.63-112.511-369.301-194.808-369.301a15.983 15.983 0 0 0-12.923 6.575 15.982 15.982 0 0 0-2.294 14.318c11.119 34.475 24.696 118.043 24.696 166.442Zm143.477 153.522c-14.517-6.066-32.181-11.133-50.567-11.133-25.396 0-54.204 8.002-75.869 15.621 7.288-29.244 14.934-78.804 14.934-158.01 0-38.978-7.89-96.79-16.813-139.097 37.967 43.511 89.73 167.745 128.315 292.619Z" fill="#FBD42C"/><path d="M270.572 606.506c-29.098 0-52.771 23.677-52.771 52.779 0 29.093 23.673 52.771 52.771 52.771 29.102 0 52.776-23.678 52.776-52.771.001-29.102-23.674-52.779-52.776-52.779Zm0 73.575c-11.469 0-20.796-9.333-20.796-20.796 0-11.473 9.327-20.806 20.796-20.806s20.801 9.333 20.801 20.806c.001 11.463-9.332 20.796-20.801 20.796Z" fill="#FBD42C"/></svg>

<svg width="800" height="800" viewBox="0 0 800 800" fill="none" xmlns="http://www.w3.org/2000/svg">
<path d="M764.868 562.761C764.681 554.063 757.58 547.113 748.889 547.113L54.0906 547.076C48.3406 547.076 43.0366 550.163 40.1946 555.16C37.3526 560.157 37.4116 566.295 40.3466 571.236C45.2446 579.473 161.748 773 287.333 773H698.305C698.965 773.035 700.09 773.069 701.571 773.069C725.936 773.069 754.476 762.677 761.488 733.504C767.741 707.541 765.181 577.5 764.868 562.761ZM730.404 726.027C727.131 739.632 709.153 741.095 701.57 741.095C700.641 741.095 700.016 741.068 699.928 741.068C699.536 741.032 699.153 741.023 698.768 741.023H287.333C203.72 741.023 117.988 629.432 83.5456 579.052L733.188 579.088C734.072 633.661 734.018 711.003 730.404 726.027Z" fill="#FBD42C"/>
<path d="M50.3469 524.855C52.6799 524.855 55.0399 524.338 57.2479 523.285C58.5419 522.66 187.954 461.236 286.488 461.236C396.071 461.236 507.48 521.671 508.591 522.276C513.552 524.999 519.569 524.91 524.431 522.027C529.292 519.145 532.278 513.927 532.278 508.27V42.9196C532.278 34.0866 525.119 26.9316 516.292 26.9316C310.341 26.9316 47.5509 481.569 36.4659 500.918C32.9869 506.994 33.8649 514.623 38.6299 519.743C41.7239 523.08 45.9989 524.855 50.3469 524.855ZM500.303 59.9596V482.459C459.978 463.68 374.121 429.26 286.489 429.26C217.962 429.26 138.645 455.454 89.7059 474.654C157.861 365.23 349.251 79.4706 500.303 59.9596Z" fill="#FBD42C"/>
<path d="M578.55 322.485C578.55 457.388 555.475 499.963 555.288 500.302C551.736 506.358 552.543 514.022 557.286 519.198C562.027 524.372 569.589 525.852 575.927 522.846C576.476 522.586 631.166 496.848 671.46 496.848C705.175 496.848 738.363 521.241 738.915 521.649C741.752 523.783 745.126 524.853 748.516 524.853C751.674 524.853 754.841 523.916 757.58 522.033C763.236 518.137 765.769 511.051 763.879 504.451C738.987 417.821 651.368 135.15 569.071 135.15C563.959 135.15 559.154 137.594 556.148 141.725C553.137 145.855 552.285 151.182 553.854 156.043C564.973 190.518 578.55 274.086 578.55 322.485ZM722.027 476.007C707.51 469.941 689.846 464.874 671.46 464.874C646.064 464.874 617.256 472.876 595.591 480.495C602.879 451.251 610.525 401.691 610.525 322.485C610.525 283.507 602.635 225.695 593.712 183.388C631.679 226.899 683.442 351.133 722.027 476.007Z" fill="#FBD42C"/>
<path d="M270.572 606.506C241.474 606.506 217.801 630.183 217.801 659.285C217.801 688.378 241.474 712.056 270.572 712.056C299.674 712.056 323.348 688.378 323.348 659.285C323.349 630.183 299.674 606.506 270.572 606.506ZM270.572 680.081C259.103 680.081 249.776 670.748 249.776 659.285C249.776 647.812 259.103 638.479 270.572 638.479C282.041 638.479 291.373 647.812 291.373 659.285C291.374 670.748 282.041 680.081 270.572 680.081Z" fill="#FBD42C"/>
</svg>
